src/assets/specializedExperts.svg

<svg xmlns="http://www.w3.org/2000/svg" width="76" height="74" fill="none" viewBox="0 0 76 74"><path fill="#2ECC82" d="M13.6815 43.0156C14.554 44.5482 15.4266 46.0807 16.2992 47.6132C16.9586 48.771 17.6047 49.9355 18.2775 51.0933C18.9036 52.1774 19.6363 52.3046 20.6088 51.5216C21.135 51.0933 21.6612 50.6583 22.1808 50.23C22.2007 50.2166 22.2274 50.2099 22.3606 50.1564C22.627 50.6918 22.9135 51.2271 23.1666 51.7826C23.2132 51.8763 23.1532 52.0302 23.1133 52.1507C23.08 52.251 23.0134 52.3514 22.9401 52.425C21.0751 54.4662 20.6088 56.8754 20.802 59.5858C20.9751 62.0018 20.8353 64.4378 20.8353 66.8671C20.8353 67.1348 20.8353 67.3958 20.8353 67.7036C17.345 67.7036 13.9412 67.7036 10.4176 67.7036C10.4176 66.6195 10.4176 65.542 10.4176 64.4646C10.4176 63.4808 10.4243 62.5037 10.4176 61.5199C10.4043 60.5094 9.8781 59.8803 9.08545 59.9004C8.31945 59.9205 7.81988 60.5361 7.81322 61.4998C7.80656 63.541 7.81322 65.5888 7.81322 67.6902C5.21548 67.6902 2.65769 67.6902 0.0399637 67.6902C0.0266419 67.4828 0 67.2686 0 67.0611C0 62.2895 0 57.5179 0 52.7396C0 51.1468 0.67941 49.9422 2.06487 49.1927C5.82828 47.1448 9.61832 45.1371 13.395 43.1093C13.4617 43.0625 13.5416 43.0558 13.6815 43.0156Z"/><path fill="#2ECC82" d="M44.3016 67.7306C43.9152 67.7306 43.6222 67.7306 43.3291 67.7306C40.2118 67.7306 37.0945 67.7306 33.8839 67.7306C33.8839 67.3759 33.8839 67.0882 33.8839 66.8004C33.8839 63.3606 33.9039 59.9274 33.864 56.4875C33.8573 55.9254 33.6242 55.3298 33.3577 54.8279C32.9647 54.085 32.4918 53.3756 31.959 52.7198C31.486 52.1375 31.486 51.6356 31.8923 51.0534C32.0722 50.7924 32.1854 50.4779 32.3919 50.0696C32.9581 50.5448 33.471 50.9664 33.9839 51.3947C35.1162 52.345 35.789 52.2379 36.5217 50.9664C37.8738 48.604 39.2127 46.2416 40.5648 43.8792C40.7114 43.6249 40.8646 43.3706 41.0577 43.0293C42.9561 44.0733 44.8278 45.0905 46.6795 46.1345C46.8127 46.2082 46.8927 46.4892 46.8993 46.6766C46.9793 51.1069 48.5246 54.9082 51.6552 58.0536C51.8284 58.2276 51.9083 58.6492 51.8284 58.8901C50.8759 61.6674 49.8701 64.4247 48.9042 67.202C48.7644 67.6035 48.5912 67.7842 48.1582 67.7507C47.7852 67.7173 47.4055 67.744 46.9126 67.744C46.9126 66.7067 46.9126 65.7096 46.9126 64.7124C46.9126 63.6751 46.9193 62.6378 46.9126 61.6005C46.906 60.523 46.3931 59.8739 45.5805 59.894C44.7945 59.914 44.3082 60.5431 44.3016 61.567C44.2949 63.5747 44.3016 65.5891 44.3016 67.7306Z"/><path fill="#2ECC82" d="M21.8479 10.7183C26.1908 15.4899 31.2597 17.8523 37.9273 15.9182C37.7741 18.7156 37.9139 21.5598 37.3944 24.2702C36.6351 28.2655 32.865 31.0495 28.8218 31.0629C26.7703 31.0696 24.7121 31.2503 22.7205 30.4472C19.2901 29.0619 16.9654 25.7425 16.9388 22.0216C16.9255 19.7863 16.9521 17.5511 16.9255 15.3159C16.9188 14.8273 17.0853 14.5262 17.465 14.2317C18.9437 13.074 20.3891 11.8894 21.8479 10.7183Z"/><path fill="#2ECC82" d="M16.2791 11.8697C15.7063 9.76831 15.26 7.80744 15.7862 5.78636C16.4257 3.33028 19.17 2.12566 21.4147 3.32359C22.1873 3.73851 22.7668 3.51767 23.2997 2.95552C25.9841 0.131359 31.8123 0.0309889 34.7165 2.42684C35.216 2.84176 35.689 3.29016 36.1752 3.73185C37.927 5.31124 39.9719 6.2147 42.4498 6.40208C41.2774 9.12586 39.9319 11.6087 37.3275 13.1212C34.843 14.5667 32.2453 14.212 29.7075 13.3019C27.1097 12.3716 25.0449 10.6785 23.4529 8.41648C22.6536 7.28547 22.0675 7.21853 20.9751 8.10192C19.4497 9.32661 17.9244 10.5513 16.2791 11.8697Z"/><path fill="#181818" d="M75.5747 46.7629C75.568 54.0709 69.7597 59.8798 62.4861 59.8664C55.259 59.853 49.504 53.9839 49.524 46.629C49.544 39.4348 55.3989 33.6793 62.6992 33.686C69.7664 33.6994 75.5814 39.6021 75.5747 46.7629ZM52.1217 46.7896C52.1217 52.5116 56.811 57.2297 62.5327 57.2631C68.1944 57.2899 72.9703 52.5115 72.9703 46.8164C72.9703 41.0677 68.2744 36.3162 62.5993 36.3095C56.8443 36.2961 52.1217 41.0208 52.1217 46.7896Z"/><path fill="#2ECC82" d="M31.2726 67.6902C28.6216 67.6902 26.0838 67.6902 23.4594 67.6902C23.4594 67.3622 23.4594 67.0745 23.4594 66.78C23.4594 63.7015 23.486 60.6231 23.4394 57.5513C23.4261 56.6947 23.7258 56.0255 24.0988 55.2759C24.8848 53.6898 25.9839 53.1344 27.7556 53.2682C28.9013 53.3552 29.5608 53.6631 30.2069 54.6201C30.9928 55.7845 31.3325 56.9222 31.2926 58.3209C31.2126 61.4261 31.2726 64.5314 31.2726 67.6902Z"/><path fill="#181818" d="M54.0864 60.2954C56.3377 61.0918 58.5092 61.8547 60.8072 62.6645C59.9146 65.9638 58.9688 69.4572 57.9497 73.2183C57.1703 72.3751 56.5242 71.6791 55.8848 70.9831C55.4052 70.4611 54.859 70.2804 54.133 70.4611C52.9007 70.7622 51.6485 70.963 50.2097 71.244C51.5486 67.4428 52.8474 63.7821 54.0864 60.2954Z"/><path fill="#181818" d="M74.8883 71.2307C73.4429 70.9496 72.164 70.7488 70.9118 70.4477C70.2124 70.2804 69.6995 70.4744 69.2332 70.963C68.5804 71.6456 67.9144 72.3215 67.1284 73.138C66.1359 69.4773 65.1834 65.9906 64.2842 62.6645C66.5555 61.8681 68.747 61.0918 71.005 60.2954C72.2373 63.7754 73.5362 67.4228 74.8883 71.2307Z"/><path fill="#2ECC82" d="M22.1543 33.064C25.6513 33.954 29.0683 33.9474 32.5719 33.064C32.5719 34.3288 32.5786 35.5736 32.5653 36.8184C32.5653 36.9656 32.5053 37.153 32.3987 37.2534C30.7468 38.9331 29.0816 40.5995 27.3631 42.3195C25.6446 40.5928 23.9794 38.9264 22.3275 37.2534C22.2276 37.153 22.161 36.9656 22.161 36.8184C22.1543 35.5736 22.1543 34.3288 22.1543 33.064Z"/><path fill="#2ECC82" stroke="#2ECC82" stroke-width=".863" d="M12.3389 44.3028L23.1182 36.1929L27.6305 35.686L42.6715 44.3028L36.6551 53.6799L33.1455 51.399L26.8785 46.3303L22.1155 50.3853L17.8539 53.6799L12.3389 44.3028Z"/><path fill="#2ECC82" d="M19.9026 48.724C18.5637 46.375 17.2649 44.0862 15.926 41.7305C17.4181 40.9341 18.8635 40.1444 20.3355 39.3882C20.4754 39.3146 20.8018 39.4149 20.935 39.5488C22.4271 41.0144 23.8991 42.5068 25.4578 44.0661C23.5994 45.6254 21.7876 47.1513 19.9026 48.724Z"/><path fill="#2ECC82" d="M29.3413 44.1334C30.9666 42.5005 32.5385 40.9211 34.1838 39.2681C35.6425 40.0645 37.1745 40.901 38.7731 41.7777C37.4543 44.0999 36.1554 46.3753 34.8232 48.7243C32.9648 47.1583 31.1597 45.6526 29.3413 44.1334Z"/><path fill="#2ECC82" d="M30.2935 48.3093C30.2735 48.4431 30.2735 48.5034 30.2536 48.5435C29.8739 49.2596 29.6341 50.3906 29.0679 50.5847C28.0688 50.926 26.8832 50.7051 25.7708 50.6851C25.6376 50.6851 25.4577 50.491 25.3778 50.3504C25.0314 49.708 24.7184 49.0455 24.3787 48.3561C25.2845 47.5932 26.1438 46.8503 27.0297 46.1476C27.1696 46.0406 27.5159 46.0071 27.6425 46.1075C28.555 46.8236 29.4343 47.5865 30.2935 48.3093Z"/><path fill="#181818" d="M54.7327 46.7768C54.7327 42.4201 58.2097 38.9268 62.5259 38.9268C66.8954 38.9268 70.3591 42.4201 70.3591 46.8237C70.3591 51.1536 66.8555 54.6403 62.5192 54.627C58.1897 54.627 54.726 51.1335 54.7327 46.7768ZM63.8514 49.3266C63.8514 47.2386 63.8648 45.1707 63.8448 43.1028C63.8381 42.0588 63.3186 41.6639 62.2928 41.5167C60.5743 41.2691 59.7283 42.4335 58.8491 43.5177C58.4428 44.0196 58.596 44.6219 59.0489 45.0703C59.4752 45.4919 59.9881 45.5923 60.5343 45.2845C60.7541 45.164 60.9539 45.0101 61.2071 44.8361C61.2071 46.3954 61.2071 47.861 61.2071 49.3266C61.0339 49.4002 60.8807 49.4538 60.7341 49.5207C60.1546 49.7951 59.8616 50.2703 59.9681 50.8993C60.0747 51.5284 60.5077 51.9366 61.1338 51.9768C62.053 52.0303 62.9789 52.0303 63.8981 51.9835C64.5641 51.95 65.0171 51.5284 65.1103 50.8659C65.2036 50.2368 64.8972 49.7683 64.3044 49.5073C64.1645 49.4605 64.0179 49.4002 63.8514 49.3266Z"/></svg>

<svg xmlns="http://www.w3.org/2000/svg" width="76" height="74" fill="none"><path fill="#2ECC82" d="m13.681 43.016 2.618 4.597c.66 1.158 1.306 2.322 1.979 3.48.626 1.084 1.358 1.212 2.33.429.527-.429 1.053-.864 1.573-1.292.02-.013.046-.02.18-.074.266.536.552 1.071.806 1.627.046.093-.014.247-.054.368-.033.1-.1.2-.173.274-1.865 2.041-2.331 4.45-2.138 7.16.173 2.417.033 4.853.033 7.282v.837H10.418v-3.24c0-.983.006-1.96 0-2.944-.014-1.01-.54-1.64-1.333-1.62-.766.02-1.265.636-1.272 1.6-.006 2.041 0 4.089 0 6.19H.04c-.013-.207-.04-.421-.04-.629V52.74c0-1.593.68-2.798 2.065-3.547 3.763-2.048 7.553-4.056 11.33-6.084.067-.047.147-.053.287-.093ZM44.302 67.73H33.884v-.93c0-3.44.02-6.873-.02-10.313-.007-.562-.24-1.157-.506-1.66a12.989 12.989 0 0 0-1.399-2.107c-.473-.582-.473-1.084-.067-1.667.18-.26.293-.575.5-.983.566.475 1.079.896 1.592 1.325 1.132.95 1.805.843 2.538-.429 1.352-2.362 2.69-4.724 4.043-7.087.146-.254.3-.508.493-.85 1.898 1.044 3.77 2.061 5.621 3.105.134.074.214.355.22.543.08 4.43 1.626 8.231 4.756 11.377.173.174.253.595.173.836-.952 2.777-1.958 5.535-2.924 8.312-.14.401-.313.582-.746.549-.373-.034-.752-.007-1.245-.007v-3.032c0-1.037.006-2.074 0-3.112-.007-1.077-.52-1.726-1.332-1.706-.787.02-1.273.65-1.28 1.673-.006 2.008 0 4.022 0 6.164ZM21.848 10.718c4.343 4.772 9.412 7.134 16.08 5.2-.154 2.798-.014 5.642-.534 8.352-.759 3.995-4.529 6.78-8.572 6.793-2.052.007-4.11.187-6.101-.616-3.43-1.385-5.756-4.704-5.782-8.425-.014-2.236.013-4.47-.014-6.706-.006-.489.16-.79.54-1.084 1.479-1.158 2.924-2.343 4.383-3.514Z"/><path fill="#2ECC82" d="M16.28 11.87c-.574-2.102-1.02-4.063-.494-6.084a3.9 3.9 0 0 1 5.629-2.462c.772.415 1.352.194 1.885-.368C25.984.13 31.812.03 34.717 2.426c.499.416.972.864 1.458 1.306 1.752 1.58 3.797 2.483 6.275 2.67-1.173 2.724-2.518 5.207-5.123 6.72-2.484 1.445-5.082 1.09-7.62.18-2.597-.93-4.662-2.623-6.254-4.886-.8-1.13-1.386-1.197-2.478-.314a3787.8 3787.8 0 0 1-4.696 3.768Z"/><path fill="#181818" d="M75.575 46.763c-.007 7.308-5.815 13.117-13.089 13.103-7.227-.013-12.982-5.882-12.962-13.237.02-7.194 5.875-12.95 13.175-12.943 7.067.013 12.882 5.916 12.876 13.077Zm-23.453.027c0 5.722 4.689 10.44 10.41 10.473 5.662.027 10.438-4.752 10.438-10.447 0-5.748-4.696-10.5-10.37-10.507-5.756-.013-10.478 4.712-10.478 10.48Z"/><path fill="#2ECC82" d="M31.273 67.69h-7.814v-.91c0-3.078.027-6.157-.02-9.229-.013-.856.287-1.526.66-2.275.786-1.586 1.885-2.142 3.657-2.008 1.145.087 1.805.395 2.45 1.352.787 1.165 1.127 2.302 1.087 3.7-.08 3.106-.02 6.211-.02 9.37Z"/><path fill="#181818" d="M54.086 60.295c2.252.797 4.423 1.56 6.721 2.37-.892 3.299-1.838 6.792-2.857 10.553-.78-.843-1.426-1.539-2.065-2.235-.48-.522-1.026-.703-1.752-.522-1.232.301-2.485.502-3.923.783 1.339-3.801 2.637-7.462 3.876-10.949ZM74.888 71.23c-1.445-.28-2.724-.481-3.976-.782-.7-.168-1.213.026-1.679.515-.653.683-1.319 1.359-2.105 2.175-.992-3.66-1.945-7.147-2.844-10.474 2.271-.796 4.463-1.572 6.721-2.369 1.232 3.48 2.531 7.128 3.883 10.936Z"/><path fill="#2ECC82" d="M22.154 33.064c3.497.89 6.914.883 10.418 0 0 1.265.007 2.51-.007 3.754 0 .148-.06.335-.166.435a880.468 880.468 0 0 1-5.036 5.066c-1.718-1.726-3.384-3.393-5.035-5.066a.678.678 0 0 1-.167-.435c-.007-1.244-.007-2.49-.007-3.754Z"/><path fill="#2ECC82" stroke="#2ECC82" stroke-width=".863" d="m12.339 44.303 10.78-8.11 4.512-.507 15.04 8.617-6.016 9.377-3.51-2.281-6.267-5.069-4.762 4.055-4.262 3.295-5.515-9.377Z"/><path fill="#2ECC82" d="M19.903 48.724c-1.34-2.349-2.638-4.638-3.977-6.993 1.492-.797 2.937-1.587 4.41-2.343.14-.073.466.027.599.16 1.492 1.466 2.964 2.959 4.523 4.518-1.859 1.56-3.67 3.085-5.555 4.658Zm9.438-4.591 4.843-4.865c1.459.797 2.99 1.633 4.59 2.51-1.32 2.322-2.619 4.597-3.95 6.946-1.86-1.566-3.664-3.071-5.483-4.59Zm.953 4.177c-.02.133-.02.193-.04.233-.38.717-.62 1.848-1.186 2.042-1 .341-2.185.12-3.297.1-.133 0-.313-.194-.393-.335-.347-.642-.66-1.305-1-1.994.907-.763 1.766-1.506 2.652-2.208.14-.107.486-.14.612-.04.913.716 1.792 1.479 2.652 2.201Z"/><path fill="#181818" d="M54.733 46.777c0-4.357 3.477-7.85 7.793-7.85 4.37 0 7.833 3.493 7.833 7.897a7.796 7.796 0 0 1-7.84 7.803c-4.33 0-7.793-3.494-7.786-7.85Zm9.118 2.55c0-2.088.014-4.156-.006-6.224-.007-1.044-.526-1.44-1.552-1.586-1.719-.248-2.565.916-3.444 2-.406.503-.253 1.105.2 1.553.426.422.94.522 1.485.215.22-.121.42-.275.673-.449v4.49c-.173.074-.326.128-.473.195-.58.274-.872.75-.766 1.378.107.63.54 1.038 1.166 1.078.919.053 1.845.053 2.764.007.666-.034 1.12-.456 1.212-1.118.094-.63-.213-1.098-.806-1.359a5.26 5.26 0 0 1-.453-.18Z"/></svg>
